tela-icon-theme/src/scalable/apps/open-lens.svg

<svg width="64" height="64" version="1.1" xmlns="http://www.w3.org/2000/svg">
 <rect x="6" y="6" width="52" height="52" rx="8" ry="8" fill="#4a97d1" fill-rule="evenodd" stroke-width=".94546"/>
 <path d="m17 17v7.5l6.875 8.75 3.125-16.25zm11.25 0-1.5625 8.75 18.438-8.75zm18.75 0.625-13.75 6.5625 13.75 6.5625zm-30 9.375v12.5h10zm21.875 1.25 4.375 18.75h3.75v-15zm0.625 8.125-8.75 10.625h11.25zm-22.5 4.375v6.25h11.875l5-6.25z" fill="#f9f9f9" stroke-width="1.25"/>
</svg>

<svg xmlns="http://www.w3.org/2000/svg" width="64" height="64"><rect width="52" height="52" x="6" y="6" fill="#4a97d1" fill-rule="evenodd" rx="8" ry="8"/><path fill="#f9f9f9" d="M17 17v7.5l6.875 8.75L27 17zm11.25 0-1.563 8.75L45.126 17zm18.75.625-13.75 6.563L47 30.75zM17 27v12.5h10zm21.875 1.25L43.25 47H47V32zm.625 8.125L30.75 47H42zM17 40.75V47h11.875l5-6.25z"/></svg>
